X: 69
T: Lardner's Reel
M: C|
L: 1/8
B: NEFR #69
B: Ryan's "Mammoth Collection", 1883, p.44 #144
F: http://www.ibiblio.org/fiddlers/LAR.htm
N: The Fiddler's Companion notes that the first part of this tune is combined with the
N: second parts of several other reels, and this is common in tunes of American origin.
K: A
   E2 \
| A2 Ac BA GB | Ac eg a2 ga | bg  eg ag fe | dc BA GB EG |
| A2 Ac BA GB | Ac eg a2 ga | bg  eg ag ae | fd BG A2 :|
|: E2 \
| E2 GE BE GB | A2 cA eA cA | B2 ^dB fB dB | e2 ge bg eg |
| ag ae fa ec | de fg ag af | ea  gf ed cB | cE GB A2 :|
